X:1
T:Title
%%score { ( 1 3 ) | ( 2 4 ) }
L:1/8
Q:1/4=112
M:4/4
K:Bb
V:1 treble nm="Grand Piano"
V:3 treble 
V:2 bass 
V:4 bass 
V:1
 [DF]2 [B,D]2 [DF]2 [DB]2 | [Fc]4 [Fd]4 | B2 G2 F2 D2 | F8 | F2 z2 z4 | [FB]4 [Fd]4 | %6
w: Johnson~Barker * * *||||||
 [Fc]2 [FA]2 [=EA]2 [EG]2 | [CF]8 | [DF]2 [F_A]2 [DG]2 [=B,D]2 | [DF]4 [CE]4 | [EG]2 [EB]2 c2 F2 | %11
w: |||||
 [^Fd]8 | [EGe]2 [Fd]2 [Fc]2 DE | [B,FB]4 [CEA]4 | [B,EG]2 [B,FB]2 c2 A2 | [DB]8 | [DF]2 D2 F2 B2 | %17
w: ||||||
 c4 [Fd]4 | B2 G2 F2 D2 | F8 | [FB]2 [FB]2 [Fc]2 [Fd]2 | [Ee]4 z4 | [Gc]2 G2 B2 A2 | [DB]8 |] %24
w: |||||||
V:2
 [B,,F,]2 [B,,F,]2 [B,,B,]2 [G,B,]2 | [F,A,]4 [B,,B,]4 | [G,B,E]2 [E,B,E]2 [F,B,D]2 [G,B,]2 | %3
 [F,C]8 | [F,A,]2 [D,F,B,]2 [C,C]2 [E,C]2 | [D,B,]4 [B,,B,]4 | [F,A,]2 [F,C]2 [C,B,]2 [C,B,]2 | %7
 [F,A,]8 | [B,,B,]2 [B,,F,]2 [=B,,G,]2 [G,,G,]2 | [C,G,]4 [C,G,]4 | %10
 [C,C]2 [C,B,]2 [F,A,E]2 [E,A,]2 | [D,A,]8 | C,2 [D,B,]2 [F,A,]2 B,,C, | D,4 F,4 | %14
 G,2 D,2 [F,A,E]2 [F,E]2 | [B,,F,]8 | [B,,F,]2 [B,,F,B,]2 [D,B,D]2 [G,B,D]2 | [F,A,F]4 [B,,B,]4 | %18
 [G,B,E]2 [E,B,E]2 [F,B,D]2 [G,B,]2 | [F,A,C]8 | [D,B,]2 [D,B,]2 [F,A,]2 [B,,_A,]2 | %21
 G,2 z2 [D,B,]4 | [E,E]2 [E,E]2 [F,CE]2 [F,CE]2 | [B,,B,]8 |] %24
V:3
 x8 | x8 | x8 | x8 | z E, F2 [EG]2 [FA]2 | x8 | x8 | x8 | x8 | x8 | x8 | x8 | z4 z2 [B,B]2 | x8 | %14
 x8 | x8 | x8 | x8 | x8 | x8 | x8 | z2 A,2 [Fd]4 | x8 | x8 |] %24
V:4
 x8 | x8 | x8 | x8 | x8 | x8 | x8 | x8 | x8 | x8 | x8 | x8 | x8 | x8 | x8 | x8 | x8 | x8 | x8 | %19
 x8 | x8 | C,4 z4 | x8 | x8 |] %24

